src/assets/skills/browserify.svg

<svg height="100pt" viewBox="0 0 100 100" width="100pt" xmlns="http://www.w3.org/2000/svg"><path d="m0 0h100v100h-100z" fill="#20262a"/><path d="m45.223 17.498c-1.214.023-2.733.78-3.819.518-.434-.104-.964-.149-1.483-.121-.009 0-.018-.001-.027 0-.528.031-1.043.142-1.422.375-.016.009-.034.018-.05.027-.014.022-.031.042-.049.061-.505.504-1.62.55-2.139 1.069-.423.424-.816 1.235-1.284 1.962-.004.007-.006.015-.011.022-1.663 1.94-2.991 4.326-3.461 6.277-.386 1.603-.38 3.767-1.014 5.362-.177.446-.911 2.915-.341 3.395.388.327 2.043.578 2.529 0 .262-.311 2.661-1.087 3.411-1.978.884-1.05 1.34-2.862 1.946-4.387.096-.243.22-.5.364-.755.343.665.616 1.209.76 1.543.3.695.63 1.656.904 2.684-.594.909-.346 2.154.083 2.722-1.736.541-.909 2.408-.976 2.475-.114.114-.476.267-.623.413-.181.181-.209.559-.209.832 0 .264.033.499.083.706-1.58 3.973-3.071 8.947-4.955 11.628-.542.248-1.097.46-1.747.59-1.266.317-4.467.944-7.164 1.852-.125.163-.262.318-.408.463-.267.267-.802.267-1.07.534-.207.208-.855-.026-1.063.182-.617.617-1.527.937-2.496 1.422-.108.054-.453-.082-.535 0-.44.44-1.229.694-1.604 1.069-.733.733-1.347 1.53-2.138 2.32-.786.786.817 2.95 1.069 3.202.743.743 2.107.861 2.849 1.604.313.312 1.36-.105 1.736.143.097.014.184.031.243.061 1.094.547 3.24.951 4.535 1.383 1.786.595 3.202 2.185 5.043 2.645 1.402.351 2.994.537 4.409 1.009.592.197 1.31.062 1.885.253 1.075.359 2.046.804 3.025 1.13.34.113.788-.087 1.135 0 .783.196 1.629.252 2.392.507 1.361.454 3.176-.453 4.536 0 .897.299 6.479-.179 6.928-.628.33-.33 1.585.089 2.017-.127.375-.187 1.513-.003 1.763-.253.646-.646 1.971-.674 2.894-1.135.388-.194.986.074 1.389-.127.231-.116.701.026 1.212.248.971-.021 1.718-.122 2.689-.122 1.155 0 2.748-.548 4.437-1.377 1.869-.421 4.153-.907 4.26-1.014.812-.812 2.97-.579 3.775-1.384.57-.57 1.303-.801 1.89-1.388.523-.524 1.242-1.122 1.995-1.753.132-.366.467-.71.777-1.019.13-.131 1.048-2.816.882-3.147-.303-.608-.805-1.11-1.383-1.577-.18-.061-.317-.124-.38-.187-.618-.617-2.097-.713-2.646-1.262-.883-.884-2.212-1.678-3.797-2.21-.332-.164-.643-.34-.865-.562-.283-.282-1.914-.643-2.392-.882-.257-.129-.817.071-1.009-.121-.465-.465-2.415-.797-3.824-1.246-.206.013-.535-.143-.595-.203-.043-.043-1.135-.204-1.494-.563-.041-.041-.187-1.504-.187-1.686 0-.067-.164-.338-.067-.435.015-.015.031-.033.045-.05-.652-4.018-1.151-8.456-1.621-8.851-.697-.587-1.084-3.829-1.851-4.475-.802-.675-1.304-1.414-1.924-1.989 0-.002.001-.004 0-.006-.233-1.281-.676-2.72-.815-2.838-.228-.191.117-1.06-.111-1.251-.707-.596-1.629-4.098-2.292-4.657-.869-.732-1.297-1.868-2.122-2.563-2.039-1.717-5.426-4.272-9.171-4.078-.158-.045-.315-.098-.468-.16-.238-.094-.508-.126-.788-.121z" fill="#3c6991"/><g fill="#e6b35a"><path d="m44.415 39.735c-.315-.057-.623-.06-.864.02-.401.133-1.049-.183-1.469-.107-1.586.287-2.829.716-3.043 1.249 2.354-.675 4.967.832 6.037 2.263.446.595-.241 1.497.002 2.226.054.166.098 1.224-.092 1.367-.399.297-.359 1.337-.688 1.812-.776 1.116-1.452 1.932-2.11 2.881-.679.978-2.495 1.174-3.508 1.51-.224.074-.506-.08-.742-.002-.056.019-.121.022-.186.013.023.026.049.05.068.075.086.115.502.006.624.09.788.547 3.904.337 4.768.051.537-.179 1.036-.442 1.573-.621.69-.229 1.368-1.301 1.863-1.853 1.703-1.898 2.481-5.186 1.639-7.723-.423-1.276-1.531-2.04-2.475-2.695-.322-.224-.873-.462-1.397-.556zm3.798-2.451c-.102-.003-.116.99-.124 1.463-.048.003-.045.062-.033.13-.511.227-1.626.683-1.54.774.004.002.004.004.006.006-.04.002-.082.016-.084.071-.004.074.147.005.221.007.118.004 1.155.386 1.566.559.051.392.202.625.202 1.073 0 .278.055.663.071.663.007 0 .018-.009.026-.013.012.048.026.076.046.058.081-.076.227-.279.377-.507.006-.01.013-.016.019-.026.263-.325.563-.742.819-1.118.497.072.952.13 1.066.13.055 0 1.943.325 1.398-.221-.033-.033-.072-.061-.111-.091.013-.01.019-.019.02-.032.004-.106-1.05-.59-1.222-.774-.083-.089-.203-.145-.286-.234-.022-.023.019-.088.084-.182v-.006c.147-.162.303-.329.416-.443.054-.054.359-.625.07-.587-.195.025-.833.066-1.669.31 0 0-.225-.295-.227-.294-.181-.074-.695-.702-1.112-.716z"/><path d="m43.495 37.137c-.06.029-.151.147-.18.087s.24-.116.18-.087c-.179.087-.874.712-.618.91.211.162.991-.142 1.322-.026.05.017.6.861.686.615.141-.402-.033-1.086-.029-1.099.065-.185.573-.109.697-.169.103-.049.311-.137.339-.219.008-.022.014-.088.024-.067.008.018-.136-.122-.311-.183-.263-.092-.528-.035-.716-.1-.086-.031.018-.54-.014-.606-.103-.213-.168-.465-.15-.427.051.106-.222.104-.294.197-.09.116-.326.511-.478.509-.183-.003-.914-.177-.963-.037-.004.008.456.463.505.702zm7.068 7.094c-.048-.045-.192-.087-.146-.136.045-.049.195.182.147.136-.147-.135-.982-.554-1.073-.244-.075.256.493.872.506 1.222.004.053-.583.873-.322.863.425-.016.999-.427 1.012-.427.196-.008.31.493.411.587.084.077.241.239.328.236.024-.001.087-.02.071-.003-.013.014.065-.171.057-.356-.01-.278-.16-.504-.167-.703-.004-.092.509-.181.558-.234.162-.174.372-.326.344-.296-.081.086-.178-.169-.291-.202-.141-.041-.594-.117-.648-.259-.064-.171-.168-.916-.317-.91-.009 0-.265.593-.469.726z"/><path d="m66.639 50.824c-.142.49-1.035 2.06-1.411 2.436-.483.483-.899.987-1.322 1.411-.301.3-1.158 1.069-1.411 1.322-.551.551-.875.345-1.499.97-.31.31-.933.316-1.235.617-.272.273-2.461.437-2.998.706-.13.065-.518-.099-.617 0-.386.386-3.436.526-3.527.617-.467.467-1.711-.071-2.381.265-.595.297-1.775.088-2.469.088-.385 0-1.406-.008-2.458-.033-.248-.036-.444-.063-.452-.055-.005.005-.029.029-.044.043-.197-.006-.388-.014-.578-.021-.119-.046-.245-.074-.348-.022-.004.002-.011.003-.016.005-.821-.04-1.491-.098-1.659-.182-.69-.345-1.431-.441-2.293-.441-1.348 0-4.334-1.594-5.379-2.116-.16-.08-.603-.545-.843-.673-.002-.092-.005-.176-.038-.209-.246-.246-.354-.795-.529-1.146-.074-.146 0-.683 0-.617 0 .003.177-.706.176-.706-.151 0-.941 1.03-1.235 1.323-.002.003.006.019.011.033-.165.227-.28.567-.28 1.08 0 1.748.963 1.84 1.868 2.745.222.222.697.074.87.248.177.177.437.334.744.474-.383.225-1.124.281-1.366.523-.238.237-1.338.92-1.747 1.124-.077.039-.45.081-.496.127-2.33 2.33-4.959 3.834-7.11 5.985-.181.181-.248 2.547-.248 2.993 0 .779-.264 1.604.248 2.116.216.216.934.063 1.125.254.041.041.562.429.622.369.228-.228-.126-1.417-.126-1.742 0-1.702.183-3.424 1.251-4.491 2.058-2.058 4.992-2.997 6.855-4.861.548-.548 1.552-.84 2.282-1.438-.026.175.004.341.132.479.085.092.389-.09.496-.033.732.388 2.964 1.221 3.621.419.119.226.214.456.331.573.437.437.095 2.548-.127 2.993-.838 1.676-1.28 6.515-1.995 7.23-.124.123.148 1.299.248 1.499.26.52-.19 1.678 0 1.868.187.187.066.684.254.871.17.17.948-.044 1.118.127.068.067.955.671 1.124.502.141-.141-.384-1.762-.501-1.996-.1-.201.271-3.891.375-3.995.145-.145-.146-.725 0-.871.283-.283.622-6.153.622-6.982 0-.14.358-1.015.127-1.246-.001-.001-.206-.473-.485-.931.412.03.758.08.86.181.183.184 3.873 0 4.486 0 2.436 0 6.269-.188 7.732-.501.583-.125 1.967-.234 2.745-.623.451-.226 2.042-.38 2.32-.452.594-.153 2.503-.612 3.036-1.146.396-.396 1.751-1.768 2.249-2.017.562-.281.844-1.279 1.174-1.742.042-.342.963-1.236.782-1.598-.205-.835-.333-1.698-.661-1.73z"/></g></svg>

<?xml version="1.0" encoding="UTF-8" standalone="no"?><!-- Generator: Gravit.io --><svg xmlns="http://www.w3.org/2000/svg" xmlns:xlink="http://www.w3.org/1999/xlink" style="isolation:isolate" viewBox="0 0 100 100" width="100pt" height="100pt"><rect x="0" y="0" width="100" height="100" transform="matrix(1,0,0,1,0,0)" fill="rgb(32,38,42)"/><g><path d=" M 45.223 17.498 C 44.009 17.521 42.49 18.278 41.404 18.016 C 40.97 17.912 40.44 17.867 39.921 17.895 C 39.912 17.895 39.903 17.894 39.894 17.895 C 39.366 17.926 38.851 18.037 38.472 18.27 C 38.456 18.279 38.438 18.288 38.422 18.297 C 38.408 18.319 38.391 18.339 38.373 18.358 C 37.868 18.862 36.753 18.908 36.234 19.427 C 35.811 19.851 35.418 20.662 34.95 21.389 C 34.946 21.396 34.944 21.404 34.939 21.411 C 33.276 23.351 31.948 25.737 31.478 27.688 C 31.092 29.291 31.098 31.455 30.464 33.05 C 30.287 33.496 29.553 35.965 30.123 36.445 C 30.511 36.772 32.166 37.023 32.652 36.445 C 32.914 36.134 35.313 35.358 36.063 34.467 C 36.947 33.417 37.403 31.605 38.009 30.08 C 38.105 29.837 38.229 29.58 38.373 29.325 C 38.716 29.99 38.989 30.534 39.133 30.868 C 39.433 31.563 39.763 32.524 40.037 33.552 C 39.443 34.461 39.691 35.706 40.12 36.274 C 38.384 36.815 39.211 38.682 39.144 38.749 C 39.03 38.863 38.668 39.016 38.521 39.162 C 38.34 39.343 38.312 39.721 38.312 39.994 C 38.312 40.258 38.345 40.493 38.395 40.7 C 36.815 44.673 35.324 49.647 33.44 52.328 C 32.898 52.576 32.343 52.788 31.693 52.918 C 30.427 53.235 27.226 53.862 24.529 54.77 C 24.404 54.933 24.267 55.088 24.121 55.233 C 23.854 55.5 23.319 55.5 23.051 55.767 C 22.844 55.975 22.196 55.741 21.988 55.949 C 21.371 56.566 20.461 56.886 19.492 57.371 C 19.384 57.425 19.039 57.289 18.957 57.371 C 18.517 57.811 17.728 58.065 17.353 58.44 C 16.62 59.173 16.006 59.97 15.215 60.76 C 14.429 61.546 16.032 63.71 16.284 63.962 C 17.027 64.705 18.391 64.823 19.133 65.566 C 19.446 65.878 20.493 65.461 20.869 65.709 C 20.966 65.723 21.053 65.74 21.112 65.77 C 22.206 66.317 24.352 66.721 25.647 67.153 C 27.433 67.748 28.849 69.338 30.69 69.798 C 32.092 70.149 33.684 70.335 35.099 70.807 C 35.691 71.004 36.409 70.869 36.984 71.06 C 38.059 71.419 39.03 71.864 40.009 72.19 C 40.349 72.303 40.797 72.103 41.144 72.19 C 41.927 72.386 42.773 72.442 43.536 72.697 C 44.897 73.151 46.712 72.244 48.072 72.697 C 48.969 72.996 54.551 72.518 55 72.069 C 55.33 71.739 56.585 72.158 57.017 71.942 C 57.392 71.755 58.53 71.939 58.78 71.689 C 59.426 71.043 60.751 71.015 61.674 70.554 C 62.062 70.36 62.66 70.628 63.063 70.427 C 63.294 70.311 63.764 70.453 64.275 70.675 C 65.246 70.654 65.993 70.553 66.964 70.553 C 68.119 70.553 69.712 70.005 71.401 69.176 C 73.27 68.755 75.554 68.269 75.661 68.162 C 76.473 67.35 78.631 67.583 79.436 66.778 C 80.006 66.208 80.739 65.977 81.326 65.39 C 81.849 64.866 82.568 64.268 83.321 63.637 C 83.453 63.271 83.788 62.927 84.098 62.618 C 84.228 62.487 85.146 59.802 84.98 59.471 C 84.677 58.863 84.175 58.361 83.597 57.894 C 83.417 57.833 83.28 57.77 83.217 57.707 C 82.599 57.09 81.12 56.994 80.571 56.445 C 79.688 55.561 78.359 54.767 76.774 54.235 C 76.442 54.071 76.131 53.895 75.909 53.673 C 75.626 53.391 73.995 53.03 73.517 52.791 C 73.26 52.662 72.7 52.862 72.508 52.67 C 72.043 52.205 70.093 51.873 68.684 51.424 C 68.478 51.437 68.149 51.281 68.089 51.221 C 68.046 51.178 66.954 51.017 66.595 50.658 C 66.554 50.617 66.408 49.154 66.408 48.972 C 66.408 48.905 66.244 48.634 66.341 48.537 C 66.356 48.522 66.372 48.504 66.386 48.487 C 65.734 44.469 65.235 40.031 64.765 39.636 C 64.068 39.049 63.681 35.807 62.914 35.161 C 62.112 34.486 61.61 33.747 60.99 33.172 C 60.99 33.17 60.991 33.168 60.99 33.166 C 60.757 31.885 60.314 30.446 60.175 30.328 C 59.947 30.137 60.292 29.268 60.064 29.077 C 59.357 28.481 58.435 24.979 57.772 24.42 C 56.903 23.688 56.475 22.552 55.65 21.857 C 53.611 20.14 50.224 17.585 46.479 17.779 C 46.321 17.734 46.164 17.681 46.011 17.619 C 45.773 17.525 45.503 17.493 45.223 17.498 L 45.223 17.498 Z " fill="rgb(60,105,145)"/><path d=" M 44.415 39.735 C 44.1 39.678 43.792 39.675 43.551 39.755 C 43.15 39.888 42.502 39.572 42.082 39.648 C 40.496 39.935 39.253 40.364 39.039 40.897 C 41.393 40.222 44.006 41.729 45.076 43.16 C 45.522 43.755 44.835 44.657 45.078 45.386 C 45.132 45.552 45.176 46.61 44.986 46.753 C 44.587 47.05 44.627 48.09 44.298 48.565 C 43.522 49.681 42.846 50.497 42.188 51.446 C 41.509 52.424 39.693 52.62 38.68 52.956 C 38.456 53.03 38.174 52.876 37.938 52.954 C 37.882 52.973 37.817 52.976 37.752 52.967 C 37.775 52.993 37.801 53.017 37.82 53.042 C 37.906 53.157 38.322 53.048 38.444 53.132 C 39.232 53.679 42.348 53.469 43.212 53.183 C 43.749 53.004 44.248 52.741 44.785 52.562 C 45.475 52.333 46.153 51.261 46.648 50.709 C 48.351 48.811 49.129 45.523 48.287 42.986 C 47.864 41.71 46.756 40.946 45.812 40.291 C 45.49 40.067 44.939 39.829 44.415 39.735 L 44.415 39.735 Z  M 48.213 37.284 C 48.111 37.281 48.097 38.274 48.089 38.747 C 48.041 38.75 48.044 38.809 48.056 38.877 C 47.545 39.104 46.43 39.56 46.516 39.651 C 46.52 39.653 46.52 39.655 46.522 39.657 C 46.482 39.659 46.44 39.673 46.438 39.728 C 46.434 39.802 46.585 39.733 46.659 39.735 C 46.777 39.739 47.814 40.121 48.225 40.294 C 48.276 40.686 48.427 40.919 48.427 41.367 C 48.427 41.645 48.482 42.03 48.498 42.03 C 48.505 42.03 48.516 42.021 48.524 42.017 C 48.536 42.065 48.55 42.093 48.57 42.075 C 48.651 41.999 48.797 41.796 48.947 41.568 C 48.953 41.558 48.96 41.552 48.966 41.542 C 49.229 41.217 49.529 40.8 49.785 40.424 C 50.282 40.496 50.737 40.554 50.851 40.554 C 50.906 40.554 52.794 40.879 52.249 40.333 C 52.216 40.3 52.177 40.272 52.138 40.242 C 52.151 40.232 52.157 40.223 52.158 40.21 C 52.162 40.104 51.108 39.62 50.936 39.436 C 50.853 39.347 50.733 39.291 50.65 39.202 C 50.628 39.179 50.669 39.114 50.734 39.02 L 50.734 39.014 C 50.881 38.852 51.037 38.685 51.15 38.571 C 51.204 38.517 51.509 37.946 51.22 37.984 C 51.025 38.009 50.387 38.05 49.551 38.294 C 49.551 38.294 49.326 37.999 49.324 38 C 49.143 37.926 48.629 37.298 48.212 37.284 L 48.213 37.284 L 48.213 37.284 Z " fill="rgb(230,179,90)"/><path d=" M 43.495 37.137 C 43.435 37.166 43.344 37.284 43.315 37.224 C 43.286 37.164 43.555 37.108 43.495 37.137 C 43.316 37.224 42.621 37.849 42.877 38.047 C 43.088 38.209 43.868 37.905 44.199 38.021 C 44.249 38.038 44.799 38.882 44.885 38.636 C 45.026 38.234 44.852 37.55 44.856 37.537 C 44.921 37.352 45.429 37.428 45.553 37.368 C 45.656 37.319 45.864 37.231 45.892 37.149 C 45.9 37.127 45.906 37.061 45.916 37.082 C 45.924 37.1 45.78 36.96 45.605 36.899 C 45.342 36.807 45.077 36.864 44.889 36.799 C 44.803 36.768 44.907 36.259 44.875 36.193 C 44.772 35.98 44.707 35.728 44.725 35.766 C 44.776 35.872 44.503 35.87 44.431 35.963 C 44.341 36.079 44.105 36.474 43.953 36.472 C 43.77 36.469 43.039 36.295 42.99 36.435 C 42.986 36.443 43.446 36.898 43.495 37.137 L 43.495 37.137 Z  M 50.563 44.231 C 50.515 44.186 50.371 44.144 50.417 44.095 C 50.462 44.046 50.612 44.277 50.564 44.231 C 50.417 44.096 49.582 43.677 49.491 43.987 C 49.416 44.243 49.984 44.859 49.997 45.209 C 50.001 45.262 49.414 46.082 49.675 46.072 C 50.1 46.056 50.674 45.645 50.687 45.645 C 50.883 45.637 50.997 46.138 51.098 46.232 C 51.182 46.309 51.339 46.471 51.426 46.468 C 51.45 46.467 51.513 46.448 51.497 46.465 C 51.484 46.479 51.562 46.294 51.554 46.109 C 51.544 45.831 51.394 45.605 51.387 45.406 C 51.383 45.314 51.896 45.225 51.945 45.172 C 52.107 44.998 52.317 44.846 52.289 44.876 C 52.208 44.962 52.111 44.707 51.998 44.674 C 51.857 44.633 51.404 44.557 51.35 44.415 C 51.286 44.244 51.182 43.499 51.033 43.505 C 51.024 43.505 50.768 44.098 50.564 44.231 L 50.563 44.231 Z " fill="rgb(230,179,90)"/><path d=" M 66.639 50.824 C 66.497 51.314 65.604 52.884 65.228 53.26 C 64.745 53.743 64.329 54.247 63.906 54.671 C 63.605 54.971 62.748 55.74 62.495 55.993 C 61.944 56.544 61.62 56.338 60.996 56.963 C 60.686 57.273 60.063 57.279 59.761 57.58 C 59.489 57.853 57.3 58.017 56.763 58.286 C 56.633 58.351 56.245 58.187 56.146 58.286 C 55.76 58.672 52.71 58.812 52.619 58.903 C 52.152 59.37 50.908 58.832 50.238 59.168 C 49.643 59.465 48.463 59.256 47.769 59.256 C 47.384 59.256 46.363 59.248 45.311 59.223 C 45.063 59.187 44.867 59.16 44.859 59.168 C 44.854 59.173 44.83 59.197 44.815 59.211 C 44.618 59.205 44.427 59.197 44.237 59.19 C 44.118 59.144 43.992 59.116 43.889 59.168 C 43.885 59.17 43.878 59.171 43.873 59.173 C 43.052 59.133 42.382 59.075 42.214 58.991 C 41.524 58.646 40.783 58.55 39.921 58.55 C 38.573 58.55 35.587 56.956 34.542 56.434 C 34.382 56.354 33.939 55.889 33.699 55.761 C 33.697 55.669 33.694 55.585 33.661 55.552 C 33.415 55.306 33.307 54.757 33.132 54.406 C 33.058 54.26 33.132 53.723 33.132 53.789 C 33.132 53.792 33.309 53.083 33.308 53.083 C 33.157 53.083 32.367 54.113 32.073 54.406 C 32.071 54.409 32.079 54.425 32.084 54.439 C 31.919 54.666 31.804 55.006 31.804 55.519 C 31.804 57.267 32.767 57.359 33.672 58.264 C 33.894 58.486 34.369 58.338 34.542 58.512 C 34.719 58.689 34.979 58.846 35.286 58.986 C 34.903 59.211 34.162 59.267 33.92 59.509 C 33.682 59.746 32.582 60.429 32.173 60.633 C 32.096 60.672 31.723 60.714 31.677 60.76 C 29.347 63.09 26.718 64.594 24.567 66.745 C 24.386 66.926 24.319 69.292 24.319 69.738 C 24.319 70.517 24.055 71.342 24.567 71.854 C 24.783 72.07 25.501 71.917 25.692 72.108 C 25.733 72.149 26.254 72.537 26.314 72.477 C 26.542 72.249 26.188 71.06 26.188 70.735 C 26.188 69.033 26.371 67.311 27.439 66.244 C 29.497 64.186 32.431 63.247 34.294 61.383 C 34.842 60.835 35.846 60.543 36.576 59.945 C 36.55 60.12 36.58 60.286 36.708 60.424 C 36.793 60.516 37.097 60.334 37.204 60.391 C 37.936 60.779 40.168 61.612 40.825 60.81 C 40.944 61.036 41.039 61.266 41.156 61.383 C 41.593 61.82 41.251 63.931 41.029 64.376 C 40.191 66.052 39.749 70.891 39.034 71.606 C 38.91 71.729 39.182 72.905 39.282 73.105 C 39.542 73.625 39.092 74.783 39.282 74.973 C 39.469 75.16 39.348 75.657 39.536 75.844 C 39.706 76.014 40.484 75.8 40.654 75.971 C 40.722 76.038 41.609 76.642 41.778 76.473 C 41.919 76.332 41.394 74.711 41.277 74.477 C 41.177 74.276 41.548 70.586 41.652 70.482 C 41.797 70.337 41.506 69.757 41.652 69.611 C 41.935 69.328 42.274 63.458 42.274 62.629 C 42.274 62.489 42.632 61.614 42.401 61.383 C 42.4 61.382 42.195 60.91 41.916 60.452 C 42.328 60.482 42.674 60.532 42.776 60.633 C 42.959 60.817 46.649 60.633 47.262 60.633 C 49.698 60.633 53.531 60.445 54.994 60.132 C 55.577 60.007 56.961 59.898 57.739 59.509 C 58.19 59.283 59.781 59.129 60.059 59.057 C 60.653 58.904 62.562 58.445 63.095 57.911 C 63.491 57.515 64.846 56.143 65.344 55.894 C 65.906 55.613 66.188 54.615 66.518 54.152 C 66.56 53.81 67.481 52.916 67.3 52.554 C 67.095 51.719 66.967 50.856 66.639 50.824 L 66.639 50.824 Z " fill="rgb(230,179,90)"/></g></svg>
